X: 4
T: Tom Ward's Downfall
R: reel
M: 4/4
L: 1/8
K: Gmaj
A|:BGGF GEDG|EDEG AEGE|DEGA BABd|ed d2 Bdgd|
BGGF GEDG|EDEG AEGE|DEGA ~B3 c|[1 dBAc BAGA:|[2 dBAc BABc||
dggf gedg|eaag a2 ga|bg~g2 agef|gedc BABc|
dggf gedg|eaag a2 ga|bg ~g2 agef|[1 gedc BABc:|[2 gedc BAGA|]

 X: 2
T: The Old Blackthorn
R: reelM: 4/4
L: 1/8
K: Dmaj
|: d2 FB AFEF | D2 dc BABc | dF F2 AF F2 | AFEF D2 fe |
d2 FB AFEF | D2 dc BABc | dF F2 AF F2 | AFEF D4 |
|:d2fd eg ec | A2 cA eAcA | defg a2 ba | afeg fddc |
defd eg ec | A2 cA eAcA |defg a2 ba | afef d4 |
